!!! OTL: Literature133
!!! Chapter: 5
!!! Section: IV
!!! Page: 376
!!! Mode: 
!!! Encoder: DJB
**kern
*staff1
*I"Piano
=1-
*clefC4
*k[b-e-a-]
*c:
*M3/4
4G/
4c\
4d\
=2
[4e-\
12e-\L]
12d\
12c\J
12e-\L
12d\
12c\J
=3
2c\
4B-\
=4
8d-\L
8F\J
4d-\
8.c\L
16Bn\Jk
=5
4.c\
8c\
8B-\L
8A-\J
=6
[4G/
12G\L]
12A-\
12B-\J
12A-\L
12B-\
12c\J
=7
2.G/
=8
4G/
6E-/
12F/
6G/
12A-\
=9
!!linebreak:original
[4B-\
12B-/L]
12F/
12F/J
12F/L
12En/
12F/J
=10
2A-\
4G/
=11
4c\
4.c\
8c-\
=12
4B-\
4E-/
4E-/
=13
[4F/
12F/L]
12G-/
12A-/J
12G-\L
12A-\
12B-\J
=14
2B-\
4E-/
=15
[4G/
12G/L]
12F/
12E-/J
12D/L
12E-/
12D/J
=16
2.C/
==
*-
